X: 111
M: C
L: 1/16
K: C
d3 c A4 z2GA | c3 c c3 c c3 G c3 a |
g3 a c'3 e g4 z2a2 | g3 a c'3 e
g3 e d3 c | d2 d e (fe) ec {B}A4 z2GA |
c3 c c3 c c2 G2 c3 a | g3 e d3 e
c4 z2 |] GF | E3 G c3 G A3 G c3 G |
e3 g (fe) (dc) {B}A4 z2GF | E3 G c3 G
c'3 b a3 g a3 g f3 e | d3 e (fe)
(dc) A4 z2G2 | c3 c c3 c c3 G c3 a |
g3 e d3 e c4 z2 |]

